data/styles/clear/style-night/symbols/viewpoint-m.svg

<svg height="24" viewBox="0 0 24 24" width="24"><g fill="none" fill-rule="evenodd"><circle cx="12" cy="12" fill="#fff" opacity=".4" r="12"/><circle cx="12" cy="12" fill="#4d361f" r="11"/><path d="m9.77272727 6c-.78232292 0-1.41794106.55177068-1.55113636 1.27389706-.34701616.07887093-.6730143.2938698-.875.63694853l-2.08806818 4.26562501h.01988636c-.17300761.3799159-.27840909.7951211-.27840909 1.2352941 0 1.6982694 1.43208603 3.0882353 3.18181818 3.0882353 1.37135257 0 2.53836332-.8590878 2.98295452-2.0459559.2531964.1213108.5360008.1930147.8352273.1930147s.5820309-.0717039.8352273-.1930147c.444591 1.1868681 1.6116017 2.0459559 2.9829545 2.0459559 1.7497321 0 3.1818182-1.3899659 3.1818182-3.0882353 0-.440173-.1054015-.8553782-.2784091-1.2352941h.0198864l-2.0880682-4.26562501c-.2019856-.34307873-.5279839-.5580776-.875-.63694853-.1331954-.72212638-.7688132-1.27389706-1.5511364-1.27389706-.7688055 0-1.4027898.53166577-1.5511363 1.23529412h-1.3522728c-.1483465-.70362835-.7823308-1.23529412-1.55113633-1.23529412zm-1.59090909 5.5588235c1.0618993 0 1.90909092.8222742 1.90909092 1.8529412s-.84719162 1.8529412-1.90909092 1.8529412-1.90909091-.8222742-1.90909091-1.8529412.84719161-1.8529412 1.90909091-1.8529412zm7.63636362 0c1.0618994 0 1.9090909.8222742 1.9090909 1.8529412s-.8471915 1.8529412-1.9090909 1.8529412c-1.0618993 0-1.9090909-.8222742-1.9090909-1.8529412s.8471916-1.8529412 1.9090909-1.8529412zm-3.8181818.6176471c.3528923 0 .6363636.275134.6363636.617647 0 .3425131-.2834713.6176471-.6363636.6176471s-.6363636-.275134-.6363636-.6176471c0-.342513.2834713-.617647.6363636-.617647z" fill="#fff" fill-rule="nonzero" opacity=".6"/></g></svg>

<svg width="24" height="24" viewBox="0 0 24 24">
  <g fill="none" fill-rule="evenodd">
    <circle cx="12" cy="12" r="12" fill="#FFF" opacity=".4"/>
    <circle cx="12" cy="12" r="11" fill="#4C351E"/>
    <path fill="#FFF" fill-rule="nonzero" d="M9.77272727,6 C8.99040435,6 8.35478621,6.55177068 8.22159091,7.27389706 C7.87457475,7.35276799 7.54857661,7.56776686 7.34659091,7.91084559 L5.25852273,12.1764706 L5.27840909,12.1764706 C5.10540148,12.5563865 5,12.9715917 5,13.4117647 C5,15.1100341 6.43208603,16.5 8.18181818,16.5 C9.55317075,16.5 10.7201815,15.6409122 11.1647727,14.4540441 C11.4179691,14.5753549 11.7007735,14.6470588 12,14.6470588 C12.2992265,14.6470588 12.5820309,14.5753549 12.8352273,14.4540441 C13.2798183,15.6409122 14.446829,16.5 15.8181818,16.5 C17.5679139,16.5 19,15.1100341 19,13.4117647 C19,12.9715917 18.8945985,12.5563865 18.7215909,12.1764706 L18.7414773,12.1764706 L16.6534091,7.91084559 C16.4514235,7.56776686 16.1254252,7.35276799 15.7784091,7.27389706 C15.6452137,6.55177068 15.0095959,6 14.2272727,6 C13.4584672,6 12.8244829,6.53166577 12.6761364,7.23529412 L11.3238636,7.23529412 C11.1755171,6.53166577 10.5415328,6 9.77272727,6 Z M8.18181818,11.5588235 C9.24371748,11.5588235 10.0909091,12.3810977 10.0909091,13.4117647 C10.0909091,14.4424317 9.24371748,15.2647059 8.18181818,15.2647059 C7.11991888,15.2647059 6.27272727,14.4424317 6.27272727,13.4117647 C6.27272727,12.3810977 7.11991888,11.5588235 8.18181818,11.5588235 Z M15.8181818,11.5588235 C16.8800812,11.5588235 17.7272727,12.3810977 17.7272727,13.4117647 C17.7272727,14.4424317 16.8800812,15.2647059 15.8181818,15.2647059 C14.7562825,15.2647059 13.9090909,14.4424317 13.9090909,13.4117647 C13.9090909,12.3810977 14.7562825,11.5588235 15.8181818,11.5588235 Z M12,12.1764706 C12.3528923,12.1764706 12.6363636,12.4516046 12.6363636,12.7941176 C12.6363636,13.1366307 12.3528923,13.4117647 12,13.4117647 C11.6471077,13.4117647 11.3636364,13.1366307 11.3636364,12.7941176 C11.3636364,12.4516046 11.6471077,12.1764706 12,12.1764706 Z" opacity=".6"/>
  </g>
</svg>
